X:499
T:It's a Long Way to Tipperary
C:Jack Judge, 1912
R:March
L:1/8
S:Colin Hume's website,  colinhume.com  - chords can also be printed below the stave.
Q:1/4=104
%%MIDI chordname dim 0 3 6 9
%%MIDI gchord fzczfzczfzczfzcz
M:4/4
%%MIDI ratio 3 1
K:A
%%center Note: 4 beats to the bar
"A"Ac BA FE C>D | "A"EF "F#7/A#"EC "Bm"E2- "E7"E2 | "A"Ac BA FE C>E | "G#7"GA G^D "E"G4 |
"A"Ac BA FE C>E | "G#7"GA G^D "E"G2 AB | "C#7"cB AG "F#m"BABc | "B7"GF GA "E"B2 CD |
"A"E2 E2 zE FG | "A"A2 c2- c2 cB | "D"A2 F4 A2 | "A"E4- "E"E2 CD |\
"A"E2 E2 zEF G | "A"A2 c4 GA | "B7"B2 F2 G2 A2 | "E"B4- "E7"B4 |
"A"E2 E2 z2FG | "A"A2c2- c4 | "D"d2 F2 A2 B2 | "C#7"c6 AB |\
"A"c2 c2 cA BA | "D#dim"F4 "A/E"E2 A2 | "B7"c2 A2- "E7"A2 B2 | "A"A6 z |]

